X: 2
T: Alabama Jubilee #2
I: Alabama Jubilee	S-A	C	square
C: S-A
M: C
Z: Transcribed to abc by Mary Lou Knack
R: square
K: C
"A"AGEA- AG2E| AGEA- A4| "D"A^FDA- AF2D| A^FDA- A4|
"G"B2^AB- B=AG2| A^GAB- B4| "C"c2cA- AGE2| cBcA- AGE2|
"A"AGEA- AG2E| AGEA- A4| "Dm"D^CDE FEFG| A2^GA- ABcd|
"C"e2e2 "E"e2d2| "F"c2AG- "A7"G2^G2| "D"A^GA^A "G"B3=G| "C"ccB^A "A7"=A3^G|
"D"A^GA^A "G"B3=G | "C"c4- ccB^A :| "C"c4- "Last time"czz2 |]
% %text 9/1/98

#include "LeftHeader.h"
% %text intentional blank so that each new letter is on the front of a page

% ---------- B ----------

#include "RightHeader.h"
$SmallLMargin
$SmallRMargin
% %scale .9
